resources/haticons/SVG/offline_share.svg

<!-- Generated by IcoMoon.io -->
<svg version="1.1" xmlns="http://www.w3.org/2000/svg" width="24" height="24" viewBox="0 0 24 24">
<title>offline_share</title>
<path d="M18 15.984v-12h-8.016v12h8.016zM18 0.984q0.797 0 1.406 0.609t0.609 1.406v14.016q0 0.797-0.609 1.383t-1.406 0.586h-8.016q-0.797 0-1.383-0.586t-0.586-1.383v-14.016q0-0.797 0.586-1.406t1.383-0.609h8.016zM15.984 23.016h-9.984q-0.797 0-1.406-0.609t-0.609-1.406v-15.984h2.016v15.984h9.984v2.016zM14.578 10.266q-2.344 0-3.563 1.641 0.656-3.094 3.563-3.516v-1.313l2.438 2.25-2.438 2.25v-1.313z"></path>
</svg>

<svg xmlns="http://www.w3.org/2000/svg" width="24" height="24"><path d="M18 15.984v-12H9.984v12H18zm0-15q.797 0 1.406.609t.609 1.406v14.016q0 .797-.609 1.383T18 18.984H9.984q-.797 0-1.383-.586t-.586-1.383V2.999q0-.797.586-1.406T9.984.984H18zm-2.016 22.032H6q-.797 0-1.406-.609t-.609-1.406V5.017h2.016v15.984h9.984v2.016zm-1.406-12.75q-2.344 0-3.563 1.641.656-3.094 3.563-3.516V7.078l2.438 2.25-2.438 2.25v-1.313z"/></svg>
